X:507
T: "Das Dutzend voll"
N: Z1187
O: Europa, Mitteleuropa, Deutschland, Niederrhein
R: Liebes - Lied
M: 3/4
L: 1/8
K: Ab
AB | c2A2c2 | B2G2A2 | F2z2B2 | E2z2
AB | c2A2d2 | ccA2B2 | F2z2G2 | A2z2
AB | c2A2d2 | ccA2B2 | F2z2G2 | A2z2

@@@ Tune index: 10265
